X:1
T:Hällilaul
T:Hällilaul
T:Cyrillus Kreek
T:Marie Heiberg
C:Cyrillus Kreek
%%score [ 1 2 ( 3 4 ) 5 ]
L:1/8
Q:1/4=90
M:4/4
K:E
V:1 treble nm="Soprano" snm="S."
V:2 treble nm="Alto" snm="A."
V:3 bass nm="Tenor" snm="T."
V:4 bass 
V:5 bass nm="Bass" snm="B."
V:1
"^Andantino" z8 |!p! G2 C z F2 F z | G2 C z F2 F z | B2 F2"^dim." B2 F2 | G2 G2 F2 F2 | %5
w: |Lii- gu, or- si,|kii- gu, or- si,|kõi- gu, kõi- gu,|ka- se la- dev,|
 G2 E2 F2 F2 | G2 E2 F2 F2 | B2 F2 c2 F2 | B2 F2 G2 G2 | (ec) cc ec cc | e"^rit."c cc ec cc | %11
w: kõi- gu- te- le|kan- get mees- ta,|kan- get mees- ta,|tar- ka tü- tart.|Jää _ tut- tu, tu- vi- ke- ne,|ma- ga, mi- nu mar- ju- ke- ne,|
[Q:1/4=85]"^Meno mosso" Fc GG Fc GG | Bc G"^rit. molto"G FF GG | %13
w: su- ru sil- mad, sir- gu- ke- ne,|ku- ni är- kad koi- du a- jal.|
[Q:1/4=90]"^Tempo I"!pp! AG FF GE FF | AG FF GE FF | z8 | %16
w: Lii- gu, or- si, kii- gu, or- si,|kõi- gu, kõi- gu, ka- se la- dev,||
!mf! !>!c!>!^^F/ z/ !>!G!>!C/ z/ !>!c!>!F/ z/ !>!G!>!C/ z/ | z4!mf! !>!c!>!^^F/ z/ !>!G!>!C/ z/ | %18
w: kõi- gu, kõi- gu, ka- se la- dev,|kii- gu, or- si,|
 z4 !>!c^^F/ z/ !>!GC/ z/ |!mf! (ed) cf e(d3/4e/8d/8) cc |!p! (f2 c2) e2 c2 | c8 | c8 | %23
w: ka- se la- dev.|Jää _ tut- tu, tu- vi- * * ke- ne,|jää _ tut- tu,|tu-|du.|
!mf! (ed) cf e(d3/4e/8d/8) cc | B^A Gc B(A3/4B/8A/8) GG | z8 | z8 | z8 | %28
w: Jää _ tut- tu, tu- vi- * * ke- ne,|ma- ga, mi- nu mar- ju- * * ke- ne!||||
 z4!pp!"^(soovi korral kinnisui)" c4- | c2 (BA) (G2 F2) | C8- | C2 z4 z2 |] %32
w: Tu-|* du, _ tu- *|du!|_|
V:2
!pp! (CD) C2 (CD) C2 | (CD) C2 (CD) C2 | (CD) C2 (CD) C2 | (CD) (CD) (CD) (CD) | %4
w: Lii- * gu, or- * si,|lii- * gu, or- * si,|kii- * gu, or- * si,|kõi- * gu, _ kõi- * gu, _|
 (CD) (CD) (CD) (CD) | (CD) C2 (CD) C2 | (CD) C2 (CD) C2 | (CD) (CD) (CD) (CD) | %8
w: ka- * se _ la- * dev, _|kõi- * gu- te- * le|kan- * get mees- * ta,|kan- * get _ mees- * ta, _|
 (CD) (CD) (CD) (ED) | (E2 D2) (ED) (EF) | GF EC =GE DE | DE FE DE FE | DD EE DD EE | %13
w: tar- * ka _ tü- * tart. _|Jää _ tut- * tu, _|ma- ga, mi- nu mar- ju- ke- ne,|su- ru sil- mad, sir- gu- ke- ne,|ku- ni är- kad koi- du a- jal.|
!mf! ED CC DB, CC | ED CC DB, CC |!mf! !>!B!>!F/ z/ !>!G!>!D/ z/ !>!B!>!F/ z/ !>!G!>!D/ z/ | z8 | %17
w: Lii- gu, or- si, kii- gu, or- si,|kõi- gu, kõi- gu, ka- se la- dev,|Lii- gu, or- si, kii- gu, or- si,||
!mf! !>!B!>!F/ z/ !>!G!>!D/ z/ z4 | !>!BF/ z/ !>!GD/ z4 z/ |!p! G4 G4 | %20
w: Lii- gu, or- si,|kõi- gu, kõi- gu,|tut- du,|
!mf! B^A Gc B(A3/4B/8A/8) GG | GF EB G(F3/4G/8F/8) EE |!p! GF3/4(G/8F/8) EB G(F3/4G/8F/8) EE | %23
w: ma- ga, mi- nu mar- ju- * * ke- ne!|Mu- re- ni veel mi- tu _ _ maa- da,|va- lu- ni _ vii- si vi- lu- * * met- sa.|
!p! G4 G4 | (F2 C2) E2 C2 |!mf! (FE) CG F(E3/4F/8E/8) CC |!p! FE CG F(E3/4F/8E/8) CC | %27
w: Tu- du,|jää _ tut- tu,|jää _ tut- tu, tu- vi- * * ke- ne,|ma- ga, mi- nu mar- ju- * * ke- ne,|
!mp! (GF) EC G(3(F/G/F/) EC |!p! G2"^dim." (F(3E/F/E/) C2 G2 | F2 (CE)!pp! C2 C2- | C8- | %31
w: jää _ tut- tu, tu- vi- * * ke- ne,|ma- ga, _ _ _ mi- nu|mar- ju- * ke- ne!|_|
 C2 z4 z2 |] %32
w: |
V:3
!pp! G,2 (G,A,) G,2 (G,A,) | G,2 (G,A,) (G,A,) (G,A,) | G,2 (G,A,) (G,A,) (G,A,) | %3
w: Lii- gu, _ or- si, _|lii- gu, _ or- * si, _|kii- gu, _ or- * si, _|
 (G,A,) (G,A,) (G,A,) (G,A,) | (G,A,) (G,A,) (G,A,) (G,A,) | G,2 (G,A,) (G,A,) (G,A,) | %6
w: kõi- * gu, _ kõi- * gu, _|ka- * se _ la- * dev, _|kõi- gu- * te- * le _|
 G,2 (G,A,) (G,A,) (G,A,) | (G,A,) (G,A,) (G,A,) (G,A,) | (G,A,) (G,A,) (G,A,) (G,A,) | %9
w: kan- get _ mees- * ta, _|kan- * get _ mees- * te, _|tar- * ka _ tü- * tart. _|
 (G,2 A,2) (G,A,) (A,^A,) | B,^A, =A,G, ^A,=A, A,G, | A,G, ^A,A, =A,G, ^A,A, | %12
w: Jää _ tut- * tu, _|ma- ga, mi- nu mar- ju- ke- ne,|su- ru sil- mad, sir- gu- ke- ne,|
 A,A, G,G, B,(C/B,/) G,G, |!pp! ^^F,G, A,A, G,G, A,A, | ^^F,G, A,A, G,G, A,A, | z8 | z8 | %17
w: ku- ni är- kad koi- du _ a- jal.|Lii- gu, or- si, kii- gu, or- si,|kõi- gu, kõi- gu, ka- se la- dev,|||
!f! ED CC DB, CC | ED CC DB, CC |!p! [^A,E]8 | E8 | ([A,D]2 [G,E]2) [A,D]2 [^A,E]2 | %22
w: kõi- gu- te- le kan- get mees- ta,|kan- get mees- ta, tar- ka tü- tart.|Tu-|du,|jää _ tut- tu,|
 ([A,D]2 [G,E]2) [A,D]2 [G,E]2 |!p! (E8 | C8) | [G,C]8 |!pp! [^A,C]8- | [A,C]8 | %28
w: jää _ tut- tu,|tu-||du,|tu-||
 [!courtesy!=A,C]8- | [A,C]8 |!ppp! [G,C]8- | [G,C]2 z4 z2 |] %32
w: du!|_|Mm.|_|
V:4
 x8 | x8 | x8 | x8 | x8 | x8 | x8 | x8 | x8 | x8 | x8 | x8 | x8 | x8 | x8 | x8 | x8 | x8 | x8 | %19
w: |||||||||||||||||||
w: |||||||||||||||||||
 x8 | (G,2 ^A,2) G,2 A,2 | x8 | x8 | (^A,8 | G,2 ^A,2 G,2 A,2) | x8 | x8 | x8 | x8 | x8 | x8 | %31
w: ||||||||||||
w: |(u)- * du, _|||||||||||
 x8 |] %32
w: |
w: |
V:5
 z8 |!pp! E,4 B,,4 | E,4 B,,4 | E,4 B,,4 | E,4 B,,4 | E,4 B,,4 | E,4 B,,4 | E,4 B,,4 | E,4 B,,4 | %9
w: |Lii- gu,|or- si,|kii- gu,|or- si,|kõi- gu-|te- le|kan- get|mees- ta.|
 C,8- | C,8 | C,8 | C,8 |!pp! C,2 (E,D,) C,2 (E,D,) | C,2 (E,D,) C,2 (E,D,) | %15
w: Jää|_|tut-|tu.|Lii- gu, _ or- si, _|kii- gu, _ or- si, _|
!p! [C,G,]2 [E,A,]2 [C,G,]2 [E,A,]2 | [C,G,]2 [E,A,]2 [C,G,]2 [E,A,]2 | %17
w: kõi- gu, kõi- gu,|ka- se la- dev,|
!mf! [C,G,]2 [E,A,]2 [C,G,]2 [E,A,]2 | [C,G,]2 [E,A,]2 [C,G,]2 [E,A,]2 |!p! [F,,C,]8 | [F,,C,]8 | %21
w: lii- gu, kii- gu,|kõi- gu, kõi- gu.|Tu-|du,|
 (B,,2 C,2) B,,2 [F,,C,]2 | (B,,2 C,2) B,,2 C,2 |!p! [F,,C,]8- | [F,,C,]8 | C,8 |!pp! [F,,C,]8- | %27
w: jää _ tut- tu,|jää _ tut- tu,|tu-||du,|tu-|
 [F,,C,]8 | [F,,C,]8- | [F,,C,]8 |!ppp! C,8- | C,2 z4 z2 |] %32
w: |du!|_|Mm.|_|

